spotlight-beam.svg

<svg fill="currentColor" viewBox="0 0 24 24"><path d="m9 16.5.91-.91 5.22 5.21-.92.91zm6.5-6.5.91-.91 5.22 5.21-.92.91zM6.72 2.72l3.43 3.43-4 4-3.43-3.43c-.78-.78-.78-2.05 0-2.83l1.17-1.17c.78-.78 2.05-.78 2.83 0m7.85 4.78.71.71-7.07 7.07-.71-.71-.86-3.5 4.43-4.43z"/></svg>

<svg  viewBox="0 0 24 24" fill="currentColor"><path  d="M9,16.5L9.91,15.59L15.13,20.8L14.21,21.71L9,16.5M15.5,10L16.41,9.09L21.63,14.3L20.71,15.21L15.5,10M6.72,2.72L10.15,6.15L6.15,10.15L2.72,6.72C1.94,5.94 1.94,4.67 2.72,3.89L3.89,2.72C4.67,1.94 5.94,1.94 6.72,2.72M14.57,7.5L15.28,8.21L8.21,15.28L7.5,14.57L6.64,11.07L11.07,6.64L14.57,7.5Z"/></svg>
